X: 2906
T: The Charmer
P: Innes's Jig
C:Aird Vol. 3
R:Jig (8x32)
B:RSCDS 29-6
Z:Anselm Lingnau <anselm@strathspey.org>
M:6/8
L:1/8
K:G
|:D|"G"GAG BAG|d2G "C"e2g|"Am"edc "A"BAG|EAA "D7"A2B|
    "G"GAG BAG|"G7"d2[G=F] "C"[e2E2]G|"Am"gfe "D7"dec|"G"BGG G2:|
|:d|"G"gdB GAG|DED GAG|"Am"edc "A"BAG|EAA "D7"A2f|
    "G"gdB GAG|"Am"ecA "D7"FED|"Em"gfe "D7"ded|"G"BGG G2:|
%%center Book29/2906-Charmer-AL.abc

%%sep 2 1 500
%%sep 1 1 500

